X:4
T:No.86 The Flogging Reel
C:reel
L:1/8
M:4/4
K:G
BGGG BGcA|BGGG Bdgd|
BGGc BGBd|AFDF ABcA|
BGGc BG (3ABc|BGGG Bdgd|
BGGc BGBd|AFDF Acef||
fggd BGBd|g2fa gbaf|
gfgd BGBd|cBAB ceaf|
gfgd BGBd|gfge fgag|
bagf gdBd|cccB cedc"@"||
Bdgd Bdgd|Bdgd BGGB|
Ac=fc Acfc|Ac=fc A=FFc|
Bdgd Bdgd|^cdef gfga|
bagf gdBG|FGAB cedc:|
"@Ending--"Bcde d2Bc|(3dcB gd BGGB|
ABcd cBAB|cbag fedc|
Bcdf ed^ce|dgfa gfga|
(3bag (3agf gdBG|FGAB ceaf|g2G4||
